X:40
M:C
L:1/8
Q:1/4=100
K:A
c/>B/|A>EF>E A>FE>c|B>A FG A2 zE|A>EF>E A>FE>c|d>feG A2 z:|
c>de>f e>dc>d|d>cf>e a2 zf|e>cB>A A>FE>c|B>A FG A3||

